icons-dark/actions/32/document-save-as.svg

<svg xmlns="http://www.w3.org/2000/svg" viewBox="0 0 32 32">
  <defs
     id="defs3051">
    <style
       type="text/css"
       id="current-color-scheme">
      .ColorScheme-Text {
        color:#ffffff;
      }
      </style>
  </defs>
  <path
     style="fill:currentColor;fill-opacity:1;stroke:none" 
     d="M 4 4 L 4 28 L 15 28 L 15 27 L 10 27 L 10 20 L 18 20 L 18 19 L 9 19 L 9 27 L 5 27 L 5 5 L 10 5 L 10 13 L 21 13 L 21 5 L 21.585938 5 L 27 10.414062 L 27 16 L 28 16 L 28 10 L 22 4 L 10 4 L 4 4 z M 11 5 L 17 5 L 17 12 L 11 12 L 11 5 z M 24.398438 16 L 19.287109 21.111328 L 16 24.398438 L 16 28 L 19.601562 28 L 28 19.601562 L 24.398438 16 z M 22.349609 19.490234 L 24.509766 21.650391 L 21.335938 24.824219 L 21.335938 24.150391 L 20.322266 24.173828 L 19.287109 24.173828 L 19.287109 23.136719 L 19.287109 22.552734 L 22.349609 19.490234 z M 18.273438 23.564453 L 18.273438 25.185547 L 20.300781 25.185547 L 20.322266 25.839844 L 19.240234 26.919922 L 17.800781 26.919922 L 17.080078 26.199219 L 17.080078 24.757812 L 18.273438 23.564453 z "
     id="path76" 
     class="ColorScheme-Text"
     />
</svg>

<svg version="1.1" viewBox="0 0 32 32" xmlns="http://www.w3.org/2000/svg">
 <defs>
  <style id="current-color-scheme" type="text/css">.ColorScheme-Text {
        color:#dedede;
      }</style>
 </defs>
 <path class="ColorScheme-Text" d="m24.398 16-8.3984 8.3984v3.6016h3.6016l8.3984-8.3984zm-2.0488 3.4902 2.1602 2.1602-3.1738 3.1738v-0.67383l-1.0137 0.02344h-1.0352v-1.6211zm-4.0762 4.0742v1.6211h2.0273l0.02148 0.6543-1.082 1.0801h-1.4395l-0.7207-0.7207v-1.4414z" fill="currentColor"/>
 <path class="ColorScheme-Text" d="m7 4c-1.662 0-3 1.338-3 3v18c0 1.662 1.338 3 3 3h8v-1h-5v-6c0-0.554 0.446-1 1-1h7v-1h-7c-1.108 0-2 0.892-2 2v6h-2c-1.108 0-2-0.892-2-2v-18c0-1.108 0.892-2 2-2h3v6c0 1.108 0.892 2 2 2h7c1.108 0 2-0.892 2-2v-6h0.58594l5.4141 5.4141v5.5859h1v-6l-6-6zm4 1h6v6c0 0.554-0.446 1-1 1h-4c-0.554 0-1-0.446-1-1z" fill="currentColor"/>
</svg>
